svg/black/actn.svg

<svg width="32" height="32" viewBox="0 0 32 32" version="1.1" xmlns="http://www.w3.org/2000/svg" xmlns:xlink="http://www.w3.org/1999/xlink"><title>svg/black/actn</title><desc>Created with Sketch.</desc><g id="black/actn" stroke="none" stroke-width="1" fill="none" fill-rule="evenodd"><path d="M16,32 C7.163444,32 0,24.836556 0,16 C0,7.163444 7.163444,0 16,0 C24.836556,0 32,7.163444 32,16 C32,24.836556 24.836556,32 16,32 Z M4.4056,21.7112 C4.2503193,21.9577511 4.11469989,22.2161502 4,22.484 C4,22.52 4.144,22.52 4.2952,22.52 C4.63446143,22.4905423 4.96845734,22.4171277 5.2888,22.3016 L5.7304,22.1912 C6.19521744,21.9898899 6.63897858,21.743088 7.0552,21.4544 L7.864,20.792 C8.25589675,20.473804 8.61380398,20.1158968 8.932,19.724 L9.8152,18.4712 C10.4416,17.6264 11.14,17.2208 11.9512,17.2568 C12.4152698,17.2385955 12.868776,17.1128954 13.276,16.8896 L15.5584,15.4184 C15.7909323,15.275249 16.012358,15.1147956 16.2208,14.9384 C16.1194748,14.6756192 15.9830354,14.4277677 15.8152,14.2016 L15.3736,13.4672 C14.896,12.6944 14.896,12.656 15.3376,11.8472 L15.3736,11.7368 C15.5129544,11.4996416 15.6364254,11.2535013 15.7432,11 C15.7382253,10.6360384 15.6882458,10.2740899 15.5944,9.9224 C15.4760761,10.0687994 15.3776234,10.2301973 15.3016,10.4024 C14.896,11.2472 14.6392,11.7272 14.6008,11.7272 C14.4904,11.7272 14.5648,10.6952 14.7856,10.0712 L15.7792,6.9512 C16.036,6.0296 16.0744,6.0296 16.3312,6.9512 L17.8,11.552 C17.9872,12.1784 18.136,12.2888 18.76,12.2888 L19.7896,12.2888 C20.5984,12.2504 21.112,12.62 21.52,13.5032 C21.7423253,13.8932792 22.015072,14.2523687 22.3312,14.5712 L27.448,19.88 C27.6104951,20.081457 27.7957234,20.263464 28,20.4224 L28,20.3864 C27.8736,20.1608 27.7392,19.94 27.5968,19.724 L23.8048,14.276 C23.5144106,13.8599782 23.1935283,13.4660952 22.8448,13.0976 L21.6688,11.8472 C21.3369847,11.5100093 20.888757,11.3125143 20.416,11.2952 L20.1232,11.2952 C19.2016,11.2952 18.3184,10.6328 17.9512,9.7112 L16.3312,5.6984 C16.256835,5.44334655 16.1319619,5.20584274 15.964,5 C15.7730438,5.19662337 15.6113859,5.41971118 15.484,5.6624 L11.7352,11.4056 C11.6484463,11.5823385 11.4915731,11.7146135 11.3027199,11.7702659 C11.1138667,11.8259182 10.9103321,11.7998504 10.7416,11.6984 L10.7032,11.6984 C10.3312,11.4776 9.964,11.588 9.7432,11.9936 L4.4056,21.7112 Z" id="Combined-Shape" fill="#000" fill-rule="nonzero"/></g></svg>

<svg width="32" height="32" viewBox="0 0 32 32" xmlns="http://www.w3.org/2000/svg"><path d="M16 32C7.163 32 0 24.837 0 16S7.163 0 16 0s16 7.163 16 16-7.163 16-16 16zM4.406 21.711a5.525 5.525 0 0 0-.406.773c0 .036.144.036.295.036.34-.03.673-.103.994-.218l.441-.11a7.68 7.68 0 0 0 1.325-.738l.809-.662c.392-.318.75-.676 1.068-1.068l.883-1.253c.627-.845 1.325-1.25 2.136-1.214a3 3 0 0 0 1.325-.367l2.282-1.472a5.44 5.44 0 0 0 .663-.48 3.12 3.12 0 0 0-.406-.736l-.441-.735c-.478-.773-.478-.811-.036-1.62l.036-.11a6.22 6.22 0 0 0 .37-.737 4.414 4.414 0 0 0-.15-1.078 2.136 2.136 0 0 0-.292.48c-.406.845-.663 1.325-.701 1.325-.11 0-.036-1.032.185-1.656l.993-3.12c.257-.921.295-.921.552 0l1.469 4.601c.187.626.336.737.96.737h1.03c.808-.039 1.322.331 1.73 1.214.222.39.495.75.811 1.068l5.117 5.309c.162.201.348.383.552.542v-.036c-.126-.225-.26-.446-.403-.662l-3.792-5.448c-.29-.416-.611-.81-.96-1.178l-1.176-1.25a1.853 1.853 0 0 0-1.253-.553h-.293c-.921 0-1.805-.662-2.172-1.584l-1.62-4.013A1.982 1.982 0 0 0 15.964 5c-.191.197-.353.42-.48.662l-3.749 5.744a.703.703 0 0 1-.993.292h-.039c-.372-.22-.739-.11-.96.296L4.406 21.71z"/></svg>
